.local/share/icons/Gruvbox-Plus-Dark/actions/16/vm_clone_wizard.svg

<svg width="16" height="16" version="1.1" xmlns="http://www.w3.org/2000/svg">
  <defs>
    <style id="current-color-scheme" type="text/css">.ColorScheme-Text { color:#ebdbb2; } .ColorScheme-Highlight { color:#458588; }</style>
  </defs>
  <path class="ColorScheme-Text" d="m4 0s-1 1e-6 -1 1v1h11v8h1s1-1e-6 1-1v-8c0-1-1-1-1-1zm-3 3s-1 1e-6 -1 1v8c0 1 1 1 1 1h2v1c0 1 1 1 1 1h5s1-1e-6 1-1v-1h2s1-1e-6 1-1v-8c0-1-1-1-1-1zm1 2h9v6h-9z" fill="currentColor"/>
</svg>

<svg xmlns="http://www.w3.org/2000/svg" width="16" height="16" version="1.1">
 <defs>
  <style id="current-color-scheme" type="text/css">
   .ColorScheme-Text { color:#565656; } .ColorScheme-Highlight { color:#4285f4; }
  </style>
 </defs>
 <path style="opacity:0.3;fill:currentColor" class="ColorScheme-Text" d="M 1,4 H 12 V 12 H 1 Z"/>
 <path style="fill:currentColor" class="ColorScheme-Text" d="M 1,3 C 1,3 0,3 0,4 V 12 C 0,13 1,13 1,13 H 3 V 14 C 3,15 4,15 4,15 H 9 C 9,15 10,15 10,14 V 13 H 12 C 12,13 13,13 13,12 V 4 C 13,3 12,3 12,3 Z M 2,5 H 11 V 11 H 2 Z"/>
 <path style="fill:currentColor" class="ColorScheme-Text" d="M 4,0 C 4,0 3,0 3,1 V 2 H 14 V 10 H 15 C 15,10 16,10 16,9 V 1 C 16,0 15,0 15,0 Z"/>
</svg>
